assets/icons/solid/sparkle-ai.svg

<svg width="24" height="24" viewBox="0 0 24 24" fill="none" xmlns="http://www.w3.org/2000/svg">
<path d="M19.4006 11.1637H19.3968C16.102 10.7338 13.7383 10.0734 13.0786 9.39731C12.7883 9.10421 12.0456 7.95136 11.3633 3.62918C11.3067 3.2462 10.9675 3 10.5 3C10.0325 3 9.69325 3.25011 9.63671 3.63309C8.9506 7.95137 8.20794 9.10421 7.92143 9.39731C7.26171 10.0734 4.89802 10.7299 1.60317 11.1637C1.2375 11.2145 1 11.5428 1 12C1 12.4494 1.24127 12.7855 1.60317 12.8363C4.89802 13.2701 7.26171 13.9305 7.92143 14.6027C8.21171 14.8958 8.95437 16.0486 9.63671 20.3708C9.69325 20.7538 10.0325 21 10.5 21C10.9675 21 11.3067 20.7499 11.3633 20.3669C12.0494 16.0486 12.7921 14.8958 13.0786 14.6027C13.7383 13.9266 16.102 13.2701 19.3968 12.8363C19.7587 12.7855 20 12.4494 20 12C20 11.5506 19.7587 11.2145 19.4006 11.1637Z" fill="#282828"/>
<path d="M15.2222 4.82523H15.2208C15.0889 4.80547 15 4.67477 15 4.5C15 4.32523 15.0889 4.19453 15.2222 4.17477C16.4361 4.00608 17.3069 3.75076 17.55 3.48784C17.6556 3.37386 17.9292 2.92553 18.1819 1.2462C18.2028 1.09726 18.3278 1 18.5 1C18.6722 1 18.7972 1.09574 18.8181 1.24468C19.0694 2.92553 19.3431 3.37386 19.45 3.48784C19.6931 3.74924 20.5639 4.00608 21.7778 4.17477C21.9111 4.19453 22 4.32523 22 4.5C22 4.67781 21.9125 4.80547 21.7778 4.82523C20.5639 4.99392 19.6931 5.24924 19.45 5.51216C19.3444 5.62614 19.0708 6.07447 18.8181 7.7538C18.7972 7.90274 18.6722 8 18.5 8C18.3278 8 18.2028 7.90426 18.1819 7.75532C17.9306 6.07447 17.6569 5.62614 17.55 5.51216C17.3069 5.24924 16.4361 4.9924 15.2222 4.82523Z" fill="#282828"/>
<path d="M22.7161 18.0818H22.7143C21.1536 17.8669 20.0339 17.5367 19.7214 17.1987C19.5839 17.0521 19.2321 16.4757 18.9089 14.3146C18.8821 14.1231 18.7214 14 18.5 14C18.2786 14 18.1179 14.1251 18.0911 14.3165C17.7661 16.4757 17.4143 17.0521 17.2786 17.1987C16.9661 17.5367 15.8464 17.865 14.2857 18.0818C14.1125 18.1073 14 18.2714 14 18.5C14 18.7247 14.1143 18.8927 14.2857 18.9181C15.8464 19.135 16.9661 19.4653 17.2786 19.8013C17.4161 19.9479 17.7679 20.5243 18.0911 22.6854C18.1179 22.8769 18.2786 23 18.5 23C18.7214 23 18.8821 22.8749 18.9089 22.6835C19.2339 20.5243 19.5857 19.9479 19.7214 19.8013C20.0339 19.4633 21.1536 19.135 22.7143 18.9181C22.8857 18.8927 23 18.7247 23 18.5C23 18.2753 22.8857 18.1073 22.7161 18.0818Z" fill="#282828"/>
</svg>

<svg xmlns="http://www.w3.org/2000/svg" width="24" height="24" fill="none" viewBox="0 0 24 24"><path fill="#282828" d="M19.4 11.164h-.003c-3.295-.43-5.659-1.09-6.318-1.767-.29-.293-1.033-1.446-1.716-5.768C11.307 3.246 10.967 3 10.5 3s-.807.25-.863.633C8.95 7.951 8.207 9.104 7.92 9.397c-.66.676-3.023 1.333-6.318 1.767-.365.05-.603.379-.603.836 0 .45.241.786.603.836 3.295.434 5.659 1.095 6.318 1.767.29.293 1.033 1.446 1.716 5.768.056.383.396.629.863.629s.807-.25.863-.633c.686-4.318 1.43-5.471 1.716-5.764.66-.676 3.023-1.333 6.318-1.767.362-.05.603-.387.603-.836 0-.45-.241-.786-.6-.836M15.222 4.825h-.001c-.132-.02-.221-.15-.221-.325s.089-.305.222-.325c1.214-.169 2.085-.424 2.328-.687.106-.114.38-.562.632-2.242.02-.149.146-.246.318-.246s.297.096.318.245c.251 1.68.525 2.129.632 2.243.243.261 1.114.518 2.328.687.133.02.222.15.222.325 0 .178-.087.305-.222.325-1.214.169-2.085.424-2.328.687-.106.114-.38.562-.632 2.242-.02.149-.146.246-.318.246s-.297-.096-.318-.245c-.251-1.68-.525-2.129-.632-2.243-.243-.263-1.114-.52-2.328-.687"/><path fill="#282828" d="M22.716 18.082h-.002c-1.56-.215-2.68-.545-2.993-.883-.137-.147-.489-.723-.812-2.884-.027-.192-.188-.315-.409-.315s-.382.125-.409.316c-.325 2.16-.677 2.736-.812 2.883-.313.338-1.433.666-2.993.883-.173.025-.286.19-.286.418 0 .225.114.393.286.418 1.56.217 2.68.547 2.993.883.137.147.489.723.812 2.884.027.192.188.315.409.315s.382-.125.409-.317c.325-2.159.677-2.735.812-2.882.313-.338 1.433-.666 2.993-.883.172-.025.286-.193.286-.418s-.114-.393-.284-.418"/></svg>
